X:91
T:Welcome Home Again. Le4.091
B:L.Leadley MS#4 c1850
Z:Village Music Project, 2016 Steve Mansfield
M:C
L:1/8
Q:2/4=75
K:A
g | a2 ed cAAd | ceec dBBg | a2ed cAAd | ceBd cAA :|
|: d | cAeA fAeA | ceec dBBd |1 cAeA fAeA | dfed cAA :|
[2 cedc defg | a2ed cAA |]

